X: 97
T: The straw seat
C: anon.
O: Ireland
B: Francis O'Neill: "The Dance Music of Ireland" (1907) no. 97
R: Double jig
Z: Transcribed by Frank Nordberg - http://www.musicaviva.com
F: http://www.musicaviva.com/abc/tunes/ireland/oneill-1001/oneill-1001-009
7.abc
M: 6/8
L: 1/8
K: D
(3A/B/c/|d2d ded|{d2}cBA ABc|d2d de_f|ecA A2 B/A/|d2d ded|{d}cBA ABc|dB/c
/d =cBA|GEE E2:|
|:(A/G/)|FDF ABA|FDF ABA|ECE GAG|ECE GAG|FDF ABA|FDF ABc|d(B/c/d) =cBA|
GED D2:|
W:
W:
W: From Musica Viva - http://www.musicaviva.com
W: the Internet center for free sheet music downloads.


